src/images_karasa_jaga_svg/sw/res/sc20236.svg

<svg height="16" width="16" xmlns="http://www.w3.org/2000/svg" xmlns:xlink="http://www.w3.org/1999/xlink"><linearGradient id="a"><stop offset="0" stop-color="#0968ef"/><stop offset="1" stop-color="#aecffc"/></linearGradient><linearGradient id="b" gradientTransform="matrix(4.6041518 -.00096409 .00225805 1.9657776 -331.67701 -47.188183)" gradientUnits="userSpaceOnUse" x1="89.410378" x2="83.567497" xlink:href="#a" y1="7.994885" y2="111.99203"/><linearGradient id="c" gradientTransform="matrix(4.0286328 -.00096409 .00197579 1.9657776 -274.21738 -15.082417)" gradientUnits="userSpaceOnUse" x1="89.410378" x2="83.567497" xlink:href="#a" y1="7.994885" y2="111.99203"/><linearGradient id="d" gradientTransform="matrix(3.3086545 -.00049849 .00162269 1.0164173 -202.35109 39.32817)" gradientUnits="userSpaceOnUse" x1="89.410378" x2="83.567497" xlink:href="#a" y1="7.994885" y2="111.99203"/><g transform="matrix(.125 0 0 .125 0 .00661)"><path d="m-128 112h64v8h-64z" fill="#565656" transform="scale(-1 1)"/><path d="m-128 88h80v8.000004h-80z" fill="#565656" transform="scale(-1 1)"/><g fill-rule="evenodd"><path d="m127.98163-.105759-127.98163.105759.018416 15.999992 127.981584-.105758z" fill="url(#b)"/><path d="m127.98393 32.000007-111.98393.105759.016114 15.999992 111.983886-.105758z" fill="url(#c)"/><path d="m128 64-91.97069.054684-.016076 7.945316 91.970656-.054683z" fill="url(#d)"/></g></g></svg>

<?xml version="1.0" encoding="UTF-8" standalone="no"?>
<!-- Created with Inkscape (http://www.inkscape.org/) -->

<svg
   xmlns:dc="http://purl.org/dc/elements/1.1/"
   xmlns:cc="http://creativecommons.org/ns#"
   xmlns:rdf="http://www.w3.org/1999/02/22-rdf-syntax-ns#"
   xmlns:svg="http://www.w3.org/2000/svg"
   xmlns="http://www.w3.org/2000/svg"
   xmlns:xlink="http://www.w3.org/1999/xlink"
   xmlns:sodipodi="http://sodipodi.sourceforge.net/DTD/sodipodi-0.dtd"
   xmlns:inkscape="http://www.inkscape.org/namespaces/inkscape"
   width="128"
   height="128"
   id="svg3408"
   sodipodi:version="0.32"
   inkscape:version="0.92.3 (unknown)"
   version="1.0"
   sodipodi:docname="sc20236.svg"
   inkscape:output_extension="org.inkscape.output.svgz.inkscape"
   inkscape:export-filename="/home/rizmut/Dokumen/Rizmut/Github/libreoffice-style-karasa-jaga/build/images_karasa_jaga/sw/res/sc20236.png"
   inkscape:export-xdpi="12"
   inkscape:export-ydpi="12">
  <defs
     id="defs3410">
    <linearGradient
       id="linearGradient3201">
      <stop
         id="stop3203"
         offset="0"
         style="stop-color:#fbaeff;stop-opacity:1;" />
      <stop
         id="stop3205"
         offset="1"
         style="stop-color:#ffd7d7;stop-opacity:1;" />
    </linearGradient>
    <linearGradient
       inkscape:collect="always"
       xlink:href="#linearGradient3201"
       id="linearGradient3189"
       x1="66.06562"
       y1="92.045761"
       x2="66.06562"
       y2="43.634895"
       gradientUnits="userSpaceOnUse"
       gradientTransform="translate(-4,0)" />
    <linearGradient
       id="linearGradient3195">
      <stop
         id="stop3197"
         offset="0"
         style="stop-color:#99c2fc;stop-opacity:1;" />
      <stop
         id="stop3199"
         offset="1"
         style="stop-color:#dceafe;stop-opacity:1;" />
    </linearGradient>
    <linearGradient
       inkscape:collect="always"
       xlink:href="#linearGradient3195"
       id="linearGradient3193"
       gradientUnits="userSpaceOnUse"
       x1="68"
       y1="112"
       x2="68"
       y2="80"
       gradientTransform="translate(-4,0)" />
    <linearGradient
       inkscape:collect="always"
       id="linearGradient3228">
      <stop
         style="stop-color:#ffffff;stop-opacity:1;"
         offset="0"
         id="stop3230" />
      <stop
         style="stop-color:#ffffff;stop-opacity:0;"
         offset="1"
         id="stop3232" />
    </linearGradient>
    <linearGradient
       inkscape:collect="always"
       xlink:href="#linearGradient3228"
       id="linearGradient3234"
       x1="84"
       y1="60"
       x2="110"
       y2="105.03332"
       gradientUnits="userSpaceOnUse"
       gradientTransform="translate(-4,0)" />
    <linearGradient
       inkscape:collect="always"
       id="linearGradient3220">
      <stop
         style="stop-color:#ffffff;stop-opacity:1;"
         offset="0"
         id="stop3222" />
      <stop
         style="stop-color:#ffffff;stop-opacity:0;"
         offset="1"
         id="stop3224" />
    </linearGradient>
    <linearGradient
       inkscape:collect="always"
       xlink:href="#linearGradient3220"
       id="linearGradient3226"
       x1="92.704826"
       y1="8.8034716"
       x2="120"
       y2="76"
       gradientUnits="userSpaceOnUse"
       gradientTransform="translate(-4,0)" />
    <linearGradient
       id="linearGradient6310">
      <stop
         style="stop-color:#b900c4;stop-opacity:1;"
         offset="0"
         id="stop6312" />
      <stop
         style="stop-color:#ae4300;stop-opacity:1;"
         offset="1"
         id="stop6314" />
    </linearGradient>
    <linearGradient
       inkscape:collect="always"
       xlink:href="#linearGradient6310"
       id="linearGradient3772"
       gradientUnits="userSpaceOnUse"
       x1="32"
       y1="88.468971"
       x2="54.051708"
       y2="6.1708703"
       gradientTransform="translate(-4,0)" />
    <linearGradient
       id="linearGradient3051">
      <stop
         style="stop-color:#0968ef;stop-opacity:1;"
         offset="0"
         id="stop3053" />
      <stop
         style="stop-color:#aecffc;stop-opacity:1;"
         offset="1"
         id="stop3055" />
    </linearGradient>
    <linearGradient
       inkscape:collect="always"
       xlink:href="#linearGradient3051"
       id="linearGradient3768"
       x1="23.5"
       y1="64"
       x2="140.19827"
       y2="32.730793"
       gradientUnits="userSpaceOnUse"
       gradientTransform="translate(-4,0)" />
    <linearGradient
       id="linearGradient3051-4">
      <stop
         style="stop-color:#0968ef;stop-opacity:1;"
         offset="0"
         id="stop3053-8" />
      <stop
         style="stop-color:#aecffc;stop-opacity:1;"
         offset="1"
         id="stop3055-7" />
    </linearGradient>
    <radialGradient
       r="9.3331003"
       fy="28.963078"
       fx="78.720047"
       cy="25.335899"
       cx="78.664696"
       gradientTransform="matrix(3.508002,1.9066247e-7,-2.952602e-7,3.5080019,-197.95592,-66.878401)"
       gradientUnits="userSpaceOnUse"
       id="radialGradient3914"
       xlink:href="#linearGradient3845"
       inkscape:collect="always" />
    <linearGradient
       inkscape:collect="always"
       id="linearGradient3845">
      <stop
         style="stop-color:#ffffff;stop-opacity:1;"
         offset="0"
         id="stop3847" />
      <stop
         style="stop-color:#ffffff;stop-opacity:0;"
         offset="1"
         id="stop3849" />
    </linearGradient>
    <linearGradient
       y2="60"
       x2="47.998501"
       y1="60"
       x1="3.9985001"
       gradientUnits="userSpaceOnUse"
       id="linearGradient3003">
      <stop
         id="stop3005"
         style="stop-color:#245795;stop-opacity:1;"
         offset="0" />
      <stop
         id="stop3007"
         style="stop-color:#afd4ff;stop-opacity:1;"
         offset="1" />
    </linearGradient>
    <linearGradient
       id="linearGradient3009">
      <stop
         id="stop3011"
         offset="0"
         style="stop-color:#9fbde2;stop-opacity:1;" />
      <stop
         id="stop3013"
         offset="1"
         style="stop-color:#ffffff;stop-opacity:1;" />
    </linearGradient>
    <linearGradient
       id="linearGradient3303">
      <stop
         style="stop-color:#ffffff;stop-opacity:0.68345326;"
         offset="0"
         id="stop3305" />
      <stop
         style="stop-color:#ffffff;stop-opacity:0;"
         offset="1"
         id="stop3307" />
    </linearGradient>
    <linearGradient
       id="linearGradient2399-7">
      <stop
         style="stop-color:#9fc5fb;stop-opacity:1"
         offset="0"
         id="stop2401-8" />
      <stop
         style="stop-color:#096df6;stop-opacity:1"
         offset="1"
         id="stop2403-8" />
    </linearGradient>
    <linearGradient
       inkscape:collect="always"
       xlink:href="#linearGradient3051"
       id="linearGradient3358"
       gradientUnits="userSpaceOnUse"
       gradientTransform="matrix(4.6041518,-9.6409115e-4,0.00225805,1.9657776,-331.67701,-47.188183)"
       x1="89.410378"
       y1="7.9948854"
       x2="83.567497"
       y2="111.99203" />
    <linearGradient
       inkscape:collect="always"
       xlink:href="#linearGradient3051"
       id="linearGradient875"
       gradientUnits="userSpaceOnUse"
       gradientTransform="matrix(4.0286328,-9.6409115e-4,0.00197579,1.9657776,-274.21738,-15.082417)"
       x1="89.410378"
       y1="7.9948854"
       x2="83.567497"
       y2="111.99203" />
    <linearGradient
       inkscape:collect="always"
       xlink:href="#linearGradient3051"
       id="linearGradient879"
       gradientUnits="userSpaceOnUse"
       gradientTransform="matrix(3.3086545,-4.984892e-4,0.00162269,1.0164173,-202.35109,39.32817)"
       x1="89.410378"
       y1="7.9948854"
       x2="83.567497"
       y2="111.99203" />
  </defs>
  <sodipodi:namedview
     id="base"
     pagecolor="#ffffff"
     bordercolor="#666666"
     borderopacity="1.0"
     inkscape:pageopacity="0.0"
     inkscape:pageshadow="2"
     inkscape:zoom="2.8284272"
     inkscape:cx="44.350679"
     inkscape:cy="38.462357"
     inkscape:document-units="px"
     inkscape:current-layer="layer1"
     height="128px"
     width="128px"
     showborder="true"
     inkscape:showpageshadow="false"
     showgrid="true"
     inkscape:window-width="1366"
     inkscape:window-height="706"
     inkscape:window-x="0"
     inkscape:window-y="0"
     showguides="false"
     inkscape:guide-bbox="true"
     objecttolerance="8"
     gridtolerance="9"
     guidetolerance="10"
     inkscape:window-maximized="1"
     inkscape:snap-page="true">
    <inkscape:grid
       id="GridFromPre046Settings"
       type="xygrid"
       originx="0"
       originy="0"
       spacingx="4"
       spacingy="4"
       color="#0000ff"
       empcolor="#0000ff"
       opacity="0.2"
       empopacity="0.4"
       empspacing="2"
       enabled="true"
       visible="true" />
  </sodipodi:namedview>
  <metadata
     id="metadata3413">
    <rdf:RDF>
      <cc:Work
         rdf:about="">
        <dc:format>image/svg+xml</dc:format>
        <dc:type
           rdf:resource="http://purl.org/dc/dcmitype/StillImage" />
        <dc:title></dc:title>
      </cc:Work>
    </rdf:RDF>
  </metadata>
  <g
     inkscape:label="Livello 1"
     inkscape:groupmode="layer"
     id="layer1">
    <g
       id="g905">
      <rect
         transform="scale(-1,1)"
         ry="0"
         rx="0"
         y="112"
         x="-128"
         height="8.0000038"
         width="64"
         id="rect2970"
         style="opacity:1;fill:#565656;fill-opacity:1;stroke:none;stroke-width:7.30079985;stroke-linecap:round;stroke-linejoin:bevel;stroke-miterlimit:4;stroke-dasharray:none;stroke-dashoffset:0;stroke-opacity:1" />
      <rect
         style="opacity:1;fill:#565656;fill-opacity:1;stroke:none;stroke-width:8.16254234;stroke-linecap:round;stroke-linejoin:bevel;stroke-miterlimit:4;stroke-dasharray:none;stroke-dashoffset:0;stroke-opacity:1"
         id="rect15242"
         width="80"
         height="8.0000038"
         x="-128"
         y="88"
         rx="0"
         ry="0"
         transform="scale(-1,1)" />
      <path
         sodipodi:nodetypes="ccccc"
         id="path3356"
         d="M 127.98163,-0.105759 0,0 0.018416,15.999992 128,15.894234 Z"
         style="fill:url(#linearGradient3358);fill-opacity:1;fill-rule:evenodd;stroke:none;stroke-width:3.00844502"
         inkscape:connector-curvature="0" />
      <path
         inkscape:connector-curvature="0"
         style="fill:url(#linearGradient875);fill-opacity:1;fill-rule:evenodd;stroke:none;stroke-width:2.8141427"
         d="M 127.98393,32.000007 16,32.105766 16.016114,48.105758 128,48 Z"
         id="path873"
         sodipodi:nodetypes="ccccc" />
      <path
         sodipodi:nodetypes="ccccc"
         id="path877"
         d="M 128,64 36.02931,64.054684 36.013234,72 127.98389,71.945317 Z"
         style="fill:url(#linearGradient879);fill-opacity:1;fill-rule:evenodd;stroke:none;stroke-width:1.83384144"
         inkscape:connector-curvature="0" />
    </g>
  </g>
</svg>
